astro/public/img/icons/identity-authentication.svg

<?xml version="1.0" encoding="UTF-8"?>
<svg width="54px" height="54px" viewBox="0 0 54 54" version="1.1" xmlns="http://www.w3.org/2000/svg" xmlns:xlink="http://www.w3.org/1999/xlink">
    <title>identity-authentication</title>
    <g id="identity-authentication" stroke="none" stroke-width="1" fill="none" fill-rule="evenodd">
        <g id="icons8-checked-user-male-50" transform="translate(6, 4)" fill-rule="nonzero">
            <circle id="Oval" fill="#F58320" cx="18.0684018" cy="9.0342009" r="9.0342009"></circle>
            <path d="M26.1991826,24.0912024 L9.0342009,24.0912024 C4.0443106,24.0912024 0,28.135513 0,33.1254033 L0,42.1596042 L17.3155517,42.1596042 L26.1991826,24.0912024 Z" id="Path" fill="#6366F1"></path>
            <path d="M36.1368036,33.1254033 L36.1368036,35.9561196 L30.053775,42.1596042 L17.3155517,42.1596042 L12.7081093,37.5521618 L26.1991826,24.0912024 L27.1026027,24.0912024 C32.1015272,24.0912024 36.1368036,28.1264788 36.1368036,33.1254033 Z" id="Path" fill="#CBD5E1"></path>
            <polygon id="Path" fill="#00B569" points="28.8612605 45.1710045 21.2394063 37.546139 25.4975263 33.2880189 28.8612605 36.6547645 37.74188 27.774145 42 32.032265"></polygon>
        </g>
    </g>
</svg>

<svg xmlns="http://www.w3.org/2000/svg" width="54" height="54"><g fill="none" transform="translate(6 4)"><circle cx="18.068" cy="9.034" r="9.034" fill="#F58320"/><path fill="#6366F1" d="M26.2 24.091H9.033A9.034 9.034 0 0 0 0 33.125v9.035h17.316l8.883-18.069Z"/><path fill="#CBD5E1" d="M36.137 33.125v2.831l-6.083 6.204H17.316l-4.608-4.608L26.2 24.092h.904a9.022 9.022 0 0 1 9.034 9.033Z"/><path fill="#00B569" d="m28.861 45.171-7.622-7.625 4.259-4.258 3.363 3.367 8.88-8.88L42 32.031z"/></g></svg>
